X: 175
T: Wan yangjiao cong
%%abc-version 2.0
%%abcx-abcm2ps-target-version 5.9.1 (29 Sep 2008)
%%abc-creator hum2abc beta
%%abcx-conversion-date 2013/10/02 07:52:29
%%abc-edited-by Helmut Schaffrath
%%humdrum-veritas 4260136434
%%humdrum-veritas-data 4024855909
%%continueall 1
%%barnumbers 0
L: 1/8
M: 3/4
K: C
G2A,2 [I:setbarnb 1]| 
CC2A, | 
AA2E/ G/ | 
D4 | 
B, A,/ G,/D2 | 
G E/ G/D2 | 
A,2A,2 | 
D B, A, A,z2 | 
[M:2/4]C C/ E/D2 | 
B, A,/ G,/D2 | 
A, D D B,/ A,/ | 
G,4 |]  



